public/images/osq-note.svg

<svg width="208" height="236" viewBox="0 0 208 236" fill="none" xmlns="http://www.w3.org/2000/svg">
<rect width="208" height="236" fill="black" fill-opacity="0"/>
<path fill-rule="evenodd" clip-rule="evenodd" d="M0 18C0 8.05888 8.05887 0 18 0H139.737C143.273 0 146.731 1.04149 149.679 2.99447L199.942 36.2947C204.974 39.6288 208 45.2636 208 51.3003V218C208 227.941 199.941 236 190 236H18C8.05887 236 0 227.941 0 218V18ZM20 20V216H188V52.3743L139.135 20H20Z" fill="#323232"/>
<path fill-rule="evenodd" clip-rule="evenodd" d="M123.798 63.667V24.918H143.798V59.667H181.59V79.667H139.798C130.961 79.667 123.798 72.5035 123.798 63.667Z" fill="#323232"/>
</svg>

<svg width="208" height="236" fill="none" xmlns="http://www.w3.org/2000/svg"><path d="M0 0h208v236H0z"/><path fill-rule="evenodd" clip-rule="evenodd" d="M0 18C0 8.059 8.059 0 18 0h121.737c3.536 0 6.994 1.041 9.942 2.994l50.263 33.3A18 18 0 0 1 208 51.3V218c0 9.941-8.059 18-18 18H18c-9.941 0-18-8.059-18-18V18zm20 2v196h168V52.374L139.135 20H20z" fill="#323232"/><path fill-rule="evenodd" clip-rule="evenodd" d="M123.798 63.667V24.918h20v34.749h37.792v20h-41.792c-8.837 0-16-7.163-16-16z" fill="#323232"/></svg>
